src/static/pycontw-2017/images/icon-modal-prev.svg

<svg width="16px" height="30px" viewBox="35 565 16 30" version="1.1" xmlns="http://www.w3.org/2000/svg" xmlns:xlink="http://www.w3.org/1999/xlink">
    <defs></defs>
    <path d="M49.1993569,594.625806 C49.4051447,594.832258 49.6623794,594.935484 49.9453376,594.935484 C50.2282958,594.935484 50.4855305,594.832258 50.6913183,594.625806 C51.1028939,594.212903 51.1028939,593.541935 50.6913183,593.129032 L37.5723473,579.967742 L50.6913183,566.806452 C51.1028939,566.393548 51.1028939,565.722581 50.6913183,565.309677 C50.2797428,564.896774 49.6109325,564.896774 49.1993569,565.309677 L35.3086817,579.219355 C34.8971061,579.632258 34.8971061,580.303226 35.3086817,580.716129 L49.1993569,594.625806 L49.1993569,594.625806 Z" id="left-arrow" stroke="none" fill="#647D92" fill-rule="evenodd"></path>
</svg>

<svg width="16" height="30" viewBox="35 565 16 30" xmlns="http://www.w3.org/2000/svg"><path d="M49.2 594.626c.205.206.462.31.745.31s.54-.104.746-.31a1.062 1.062 0 0 0 0-1.497l-13.119-13.161 13.12-13.162a1.062 1.062 0 0 0 0-1.496 1.053 1.053 0 0 0-1.493 0l-13.89 13.91a1.062 1.062 0 0 0 0 1.496l13.89 13.91z" fill="#647D92" fill-rule="evenodd"/></svg>
